svgs/sharp-light/ballot.svg

<svg xmlns="http://www.w3.org/2000/svg" viewBox="0 0 448 512"><!--! Font Awesome Pro 6.6.0 by @fontawesome - https://fontawesome.com License - https://fontawesome.com/license (Commercial License) Copyright 2024 Fonticons, Inc. --><path d="M416 32l0 448L32 480 32 32l384 0zM32 0L0 0 0 32 0 480l0 32 32 0 384 0 32 0 0-32 0-448 0-32L416 0 32 0zM160 112l0 32 16 0 176 0 16 0 0-32-16 0-176 0-16 0zm0 128l0 32 16 0 176 0 16 0 0-32-16 0-176 0-16 0zm0 128l0 32 16 0 176 0 16 0 0-32-16 0-176 0-16 0zM120 104l-48 0 0 48 48 0 0-48zM72 232l0 48 48 0 0-48-48 0zm48 128l-48 0 0 48 48 0 0-48z"/></svg>

<svg xmlns="http://www.w3.org/2000/svg" viewBox="0 0 448 512"><!--! Font Awesome Pro 6.4.0 by @fontawesome - https://fontawesome.com License - https://fontawesome.com/license (Commercial License) Copyright 2023 Fonticons, Inc. --><path d="M416 32V480H32V32H416zM32 0H0V32 480v32H32 416h32V480 32 0H416 32zM160 112v32h16H352h16V112H352 176 160zm0 128v32h16H352h16V240H352 176 160zm0 128v32h16H352h16V368H352 176 160zM120 104H72v48h48V104zM72 232v48h48V232H72zm48 128H72v48h48V360z"/></svg>
